X:1
T:Lahard Chase
L:1/8
Q:1/4=140
M:4/4
I:linebreak $
K:G
V:1 treble 
V:1
|: c>A A>A D>A A>A | c>A A>A D>cB>A | B>G G>F G3- G/A/ | B>G c>G d>c B>A |$ c>A A>A D>A A>A | %5
 c>A A>A D>c B>A | B>GA>B G>D B,>D | c>B A>G A>G E>G ::$[K:C] A3/2 d2 d/ e>d d>d | %9
 a>d d>d f>e d>B | c2 c>B c2 d>f | e>d c>B A>G F>E | D>d d>d e>d d>d |$ f>d e>f d>c A>B | %14
 c>EG>c d>A c>d | e>a g>e d>c A>G :| %16
